static/icons/rss.svg

<svg xmlns="http://www.w3.org/2000/svg" viewBox="0 0 24 24" width="24" height="24"><path d="M3 17C5.20914 17 7 18.7909 7 21H3V17ZM3 10C9.07513 10 14 14.9249 14 21H12C12 16.0294 7.97056 12 3 12V10ZM3 3C12.9411 3 21 11.0589 21 21H19C19 12.1634 11.8366 5 3 5V3Z" fill="currentColor"></path></svg>

<svg xmlns="http://www.w3.org/2000/svg" width="24" height="24"><path fill="currentColor" d="M3 17a4 4 0 0 1 4 4H3zm0-7c6.075 0 11 4.925 11 11h-2a9 9 0 0 0-9-9zm0-7c9.941 0 18 8.059 18 18h-2c0-8.837-7.163-16-16-16z"/></svg>
